X:1
T:If You But Trust in God to Guide You
T:If You But Trust in God to Guide You
T:Copyright © 
Z:Copyright ©
%%score ( 1 2 ) ( 3 4 )
L:1/8
M:3/4
K:Bb
V:1 treble nm="SOPRANO ALTO" snm="S. A."
V:2 treble 
V:3 bass nm="TENOR BASS" snm="T. B."
V:4 bass 
V:1
"^1""^2""^3" D2 G2 A2 | B4 A2 | G4 A2 | ^F2 D4 | =F2 F2 E2 | D4 G2 | G4 ^F2 | G6 | D2 G2 A2 | %9
w: If you but|trust in|God to|guide you|and place your|con- fi-|dence in|him,|you'll find him|
w: On- ly be|still and|wait his|plea- sure|in cheer- ful|hope with|heart con-|tent.|He fills your|
w: Sing, pray, and|keep his|ways un-|swerv- ing,|of- fer your|ser- vice|faith- ful-|ly,|and trust his|
 B4 A2 | G4 A2 | ^F2 D4 | =F2 F2 E2 | D4 G2 | G4 ^F2 | G6 | A2 B2 c2 | d4 d2 |1 c4 c2 | B6 | %20
w: al- ways|there be-|side you|to give you|hope and|strength with-|in;|for those who|trust God's|change- less|love|
w: needs to|ful- lest|mea- sure|with what dis-|cern- ing|love has|sent;|doubt not our|in- most|wants are|known|
w: word; though|un- de-|serv- ing,|you'll find his|prom- ise|true to|be.|God nev- er|will for-|sake in|need|
 B2 A2 G2 | ^F4 G2 | G4 ^F2 | G6 |] %24
w: build on the|rock that|will not|move.|
w: to him who|chose us|for his|own.|
w: the soul that|trusts in|him in-|deed.|
V:2
 D2 D2 D2 | D4 D2 | E4 E2 | D2 A,4 | D2 D2 C2 | A,4 D2 | E4 D2 | D6 | D2 D2 D2 | D4 D2 | E4 E2 | %11
 D2 A,4 | D2 D2 C2 | A,4 D2 | E4 D2 | D6 | D2 D2 F2 | F4 F2 |1 G4 FE | D6 | F2 F2 D2 | D4 B,2 | %22
 E4 D2 | D6 |] %24
V:3
 B,2 G,2 ^F,2 | G,4 A,2 | B,4 C2 | A,2 ^F,4 | B,2 B,2 G,2 | ^F,4 G,2 | C4 A,2 | B,6 | %8
 B,2 G,2 ^F,2 | G,4 A,2 | B,4 C2 | A,2 ^F,4 | B,2 B,2 G,2 | ^F,4 G,2 | C4 A,2 | B,6 | %16
 ^F,2 G,2 A,2 | B,4 B,2 |1 %18
"^Copyright 2008 Hymnary.org. You may use this score in personal and corporate worship settings. Commercial use and republication are prohibited without written consent." B,4 A,2 | %19
 B,6 | D2 C2 B,2 | A,4 G,2 | (C3 B,) A,2 | B,6 |] %24
V:4
 G,,2 B,,2 D,2 | G,4 F,2 | E,4 C,2 | D,2 D,4 | B,,2 B,,2 C,2 | D,4 B,,2 | C,4 D,2 | G,,6 | %8
 G,,2 B,,2 D,2 | G,4 F,2 | E,4 C,2 | D,2 D,4 | B,,2 B,,2 C,2 | D,4 B,,2 | C,4 D,2 | G,,6 | %16
 D,2 G,2 =F,2 | B,,4 D,2 |1 E,4 F,2 | B,,6 | B,,2 F,2 G,2 | D,4 E,2 | C,4 D,2 | G,,6 |] %24

